X:1
T:Last Days Plea, 10.12.10.6
T:Last Days Plea, 10.12.10.6
T:Scott Werdebaugh, 2017
T:© 2017 Scott Werdebaugh. Reproduce or publish freely for Christian worship or devotions. Courtesy of the Cyber Hymnal™
C:Scott Werdebaugh, 2017
Z:© 2017 Scott Werdebaugh. Reproduce or publish freely for Christian worship or devotions.
Z:Courtesy of the Cyber Hymnal™
%%score 1 2
L:1/8
Q:1/4=108
M:4/4
K:C
V:1 treble 
V:2 bass 
V:1
"^Prayer of desperation" [EG]4 [CE]2 [DF]2 | [EG]6 [EG]2 | [CA]2 [Ec]2 [DB]2 [CA]2 | [EG]6 [CG]2 | %4
 [CF]3 [CF] [B,D]2 [CE]2 | [CF]6 [CF]2 | [CE]3 [CE] [CE]2 [G,C]2 | [B,D]6 [B,G]2 | %8
 [CG]3 [CG] [CE]2 [CF]2 | [EG]6 [EG]2 | [Ec]4 [DB]4 | [CA]6 [CA]2 | %12
"^rit." [CG]3 [CA] [B,E]2 [B,D]2 |[Q:1/4=102] [G,C]6 z2 |] %14
V:2
 [C,G,]4 [C,G,]2 [G,B,]2 | [C,C]6 [C,C]2 | [F,A,]2 [C,G,]2 [G,,G,]2 [F,A,]2 | [C,C]6 [E,G,]2 | %4
 [F,A,]3 [F,A,] [G,,G,]2 [C,G,]2 | [F,A,]6 [F,A,]2 | [C,G,]3 [C,G,] [C,G,]2 [C,E,]2 | %7
 [G,,G,]6 [D,F,]2 | [C,E,]3 [C,E,] [C,G,]2 [F,A,]2 | [C,C]6 [C,C]2 | [C,G,]4 [G,,G,]4 | %11
 [F,A,]6 [F,A,]2 | [C,E,]3 [F,A,] [E,G,]2 [G,,F,]2 | [C,E,]6 z2 |] %14

